docs/svgs/room-garage.svg

<svg viewBox="0 0 24 24" height="24px" width="24px" fill="#44739e" xmlns="http://www.w3.org/2000/svg"><title>hue:room-garage</title><desc>Source: https://github.com/arallsopp/hass-hue-icons</desc><path d="M 20.835938 4.304688 C 21.054688 4.523438 21.054688 4.902344 20.832031 5.222656 L 17.457031 10.058594 C 17.15625 10.488281 16.585938 10.613281 16.285156 10.3125 L 15.578125 9.609375 L 14.769531 10.417969 L 13.597656 9.246094 L 14.40625 8.4375 L 13.703125 7.730469 C 13.402344 7.429688 13.527344 6.859375 13.957031 6.558594 L 18.792969 3.179688 C 19.109375 2.960938 19.492188 2.960938 19.710938 3.179688 Z M 8.65625 13.011719 L 11.003906 15.359375 L 5.605469 20.757812 C 5.28125 21.082031 4.753906 21.082031 4.429688 20.757812 L 3.257812 19.585938 C 2.933594 19.261719 2.933594 18.734375 3.257812 18.410156 Z M 20.742188 18.507812 C 21.066406 18.832031 21.066406 19.359375 20.742188 19.683594 L 19.683594 20.742188 C 19.519531 20.902344 19.308594 20.984375 19.097656 20.984375 C 18.882812 20.984375 18.667969 20.902344 18.507812 20.742188 L 8.386719 10.621094 C 7.179688 11.09375 5.765625 10.949219 4.691406 10.1875 C 3.320312 9.21875 2.785156 7.625 3.078125 6.164062 C 3.140625 5.863281 3.523438 5.753906 3.742188 5.972656 L 5.269531 7.503906 C 5.578125 7.8125 6.078125 7.8125 6.386719 7.503906 L 7.503906 6.386719 C 7.8125 6.078125 7.8125 5.578125 7.503906 5.269531 L 5.976562 3.742188 C 5.757812 3.523438 5.867188 3.136719 6.171875 3.078125 C 7.421875 2.828125 8.769531 3.183594 9.738281 4.152344 C 10.882812 5.296875 11.171875 6.96875 10.617188 8.382812 Z M 20.742188 18.507812 "/></svg>

<svg viewBox="0 0 24 24" height="24px" width="24px" fill="#44739e" xmlns="http://www.w3.org/2000/svg"><title>hue:room-garage</title><desc>Source: https://github.com/arallsopp/hass-hue-icons</desc><path d="M20.84,4.3c0.22,0.22,0.22,0.6,0,0.92l-3.38,4.84c-0.3,0.43-0.87,0.55-1.17,0.25l-0.71-0.7l-0.81,0.81 L13.6,9.25l0.81-0.81l-0.7-0.71c-0.3-0.3-0.18-0.87,0.25-1.17l4.84-3.38c0.32-0.22,0.7-0.22,0.92,0L20.84,4.3z M8.66,13.01L11,15.36 l-5.4,5.4c-0.32,0.32-0.85,0.32-1.18,0l-1.17-1.17c-0.32-0.32-0.32-0.85,0-1.18L8.66,13.01z M20.74,18.51 c0.32,0.32,0.32,0.85,0,1.18l-1.06,1.06c-0.16,0.16-0.38,0.24-0.59,0.24c-0.21,0-0.43-0.08-0.59-0.24L8.39,10.62 c-1.21,0.47-2.62,0.33-3.7-0.43C3.32,9.22,2.79,7.62,3.08,6.16c0.06-0.3,0.45-0.41,0.66-0.19L5.27,7.5c0.31,0.31,0.81,0.31,1.12,0 L7.5,6.39c0.31-0.31,0.31-0.81,0-1.12L5.98,3.74c-0.22-0.22-0.11-0.61,0.2-0.66c1.25-0.25,2.6,0.11,3.57,1.07 c1.14,1.14,1.43,2.82,0.88,4.23L20.74,18.51z"/></svg>
